Papirus/16x16/actions/office-chart-line.svg

<?xml version="1.0" encoding="UTF-8" standalone="no"?>
<!--Created with Inkscape (http://www.inkscape.org/)-->
<svg xmlns:dc="http://purl.org/dc/elements/1.1/" xmlns:cc="http://creativecommons.org/ns#" xmlns:rdf="http://www.w3.org/1999/02/22-rdf-syntax-ns#" xmlns:svg="http://www.w3.org/2000/svg" xmlns="http://www.w3.org/2000/svg" xmlns:sodipodi="http://sodipodi.sourceforge.net/DTD/sodipodi-0.dtd" xmlns:inkscape="http://www.inkscape.org/namespaces/inkscape" width="16" height="16" id="svg3049" version="1.1" inkscape:version="0.91 r13725" sodipodi:docname="office-chart-line.svg" inkscape:export-filename="/home/uri/.kde/share/icons/NITRUX-KDE/16x16/actions/view-right-new.png" inkscape:export-xdpi="30" inkscape:export-ydpi="30">
    <defs id="defs3051">
        <style type="text/css" id="current-color-scheme">
            .ColorScheme-Text { color:#4d4d4d; } .ColorScheme-Background { color:#eff0f1; } .ColorScheme-Highlight { color:#3daee9; } .ColorScheme-ViewText { color:#31363b; } .ColorScheme-ViewBackground { color:#fcfcfc; } .ColorScheme-ViewHover { color:#93cee9; } .ColorScheme-ViewFocus{ color:#3daee9; } .ColorScheme-ButtonText { color:#31363b; } .ColorScheme-ButtonBackground { color:#eff0f1; } .ColorScheme-ButtonHover { color:#93cee9; } .ColorScheme-ButtonFocus{ color:#3daee9; }
        </style>
    </defs>
    <sodipodi:namedview id="base" pagecolor="#000000" bordercolor="#666666" borderopacity="1.0" inkscape:pageopacity="0.0" inkscape:pageshadow="2" inkscape:zoom="26" inkscape:cx="-5.0928751" inkscape:cy="6.9763635" inkscape:document-units="px" inkscape:current-layer="layer1" showgrid="false" fit-margin-top="0" fit-margin-left="0" fit-margin-right="0" fit-margin-bottom="0" inkscape:window-width="1535" inkscape:window-height="839" inkscape:window-x="55" inkscape:window-y="30" inkscape:window-maximized="0" inkscape:showpageshadow="false" borderlayer="true" inkscape:snap-bbox="true" inkscape:snap-global="true" inkscape:object-nodes="true" showguides="false" inkscape:guide-bbox="true">
        <inkscape:grid type="xygrid" id="grid4085"/>
        <sodipodi:guide position="2.0000044,14.00003" orientation="12,0" id="guide4075"/>
        <sodipodi:guide position="14.000004,2.0000296" orientation="-12,0" id="guide4079"/>
        <sodipodi:guide position="14.000004,14.00003" orientation="0,-12" id="guide4081"/>
        <sodipodi:guide position="8,2" orientation="0,1" id="guide4178"/>
    </sodipodi:namedview>
    <metadata id="metadata3054">
        <rdf:RDF>
            <cc:Work rdf:about="">
                <dc:format>
                    image/svg+xml
                </dc:format>
                <dc:type rdf:resource="http://purl.org/dc/dcmitype/StillImage"/>
                <dc:title/>
            </cc:Work>
        </rdf:RDF>
    </metadata>
    <g inkscape:label="Capa 1" inkscape:groupmode="layer" id="layer1" transform="translate(-421.71429,-531.79074)">
        <path style="fill:#000000;fill-opacity:1;stroke:none;opacity:0.5" d="M 8.9980469,1.9980469 7.4707031,3.5253906 3,3.5253906 3,2 2,2 l 0,1.5253906 9.765e-4,0 0,0.00781 L 2,3.5332031 2,8 l 0,1 0,2 -9.765e-4,0 0,0.0078 9.765e-4,0 L 2,13 2,14 3,14 14,14 14,13.001953 14,13 14,11.867188 13.958984,11.828125 13.130859,11 l -2,-2 -0.0039,0.00391 L 11.121094,9 8.9980469,11.123047 7.703125,9.828125 6.875,9 5.875,8 5.6875,8 4.4609375,8 3,8 3,7 5.4101562,7 6.8769531,5.5332031 7.7050781,4.7050781 9,3.4101562 l 2.123047,2.1230469 0.0059,-0.00391 0.0039,0.00391 2,-2 0.828126,-0.828125 c 0.003,0.005 -0.707032,-0.7070312 -0.707032,-0.7070312 l -0.828125,0.828125 -1.296875,1.296875 -2.1269529,-2.125 L 9,2 Z M 3,3.5332031 l 4.4628906,0 L 6.9980469,3.9980469 6.1699219,4.8261719 4.9960938,6 3,6 Z M 3,9 5.4609375,9 6.1679688,9.7070312 6.9960938,10.535156 7.4609375,11 3,11 Z m 8.126953,1.410156 1.296875,1.296875 0.828125,0.828125 L 13.734375,13 3,13 l 0,-1.992188 4.46875,0 1.5273438,1.527344 0.00195,-0.002 0.00195,0.002 z" transform="translate(421.71429,531.79074)" id="rect4223" inkscape:connector-curvature="0" sodipodi:nodetypes="ccccccccccccccccccccccccccccccccccccccccccccccccccccccccccccccccccccccccccc"/>
    </g>
</svg>

<?xml version="1.0" encoding="UTF-8" standalone="no"?>
<!--Created with Inkscape (http://www.inkscape.org/)-->
<svg id="svg3049" xmlns:rdf="http://www.w3.org/1999/02/22-rdf-syntax-ns#" xmlns="http://www.w3.org/2000/svg" height="16" width="16" version="1.1" xmlns:cc="http://creativecommons.org/ns#" xmlns:dc="http://purl.org/dc/elements/1.1/">
 <defs id="defs3051">
 </defs>
 <metadata id="metadata3054">
  <rdf:RDF>
   <cc:Work rdf:about="">
    <dc:format>image/svg+xml</dc:format>
    <dc:type rdf:resource="http://purl.org/dc/dcmitype/StillImage"/>
    <dc:title/>
   </cc:Work>
  </rdf:RDF>
 </metadata>
 <g id="layer1" transform="translate(-421.71 -531.79)">
  <path id="rect4223" opacity=".5" d="m8.998 1.998-1.5273 1.5274h-4.4707v-1.5254h-1v1.5254h0.0009765v0.00781h-0.001v4.4668 1 2h-0.0009765v0.0078h0.0009765v1.992 1h1 11v-0.998-0.002-1.133l-0.041-0.039-0.828-0.828-2-2-0.0039 0.00391-0.006-0.0039-2.123 2.123-1.2949-1.2949-0.8281-0.8281-1-1h-0.1875-1.2266-1.4609v-1h2.4102l1.4668-1.4668 0.8281-0.8281 1.2949-1.2949 2.123 2.123 0.0059-0.00391 0.0039 0.00391 2-2 0.82813-0.82812c0.003 0.005-0.70703-0.70703-0.70703-0.70703l-0.82812 0.82812-1.2969 1.2969-2.127-2.125-0.002 0.0019zm-5.998 1.5352h4.4629l-0.4649 0.4648-0.8281 0.8282-1.1738 1.1738h-1.9961zm0 5.4668h2.4609l0.7071 0.707 0.8281 0.828 0.4648 0.465h-4.4609zm8.127 1.4102 1.2969 1.2969 0.82812 0.82812l0.482 0.465h-10.734v-1.9922h4.4688l1.5273 1.5273 0.00195-0.002 0.00195 0.002z" transform="translate(421.71 531.79)"/>
 </g>
</svg>
